dist/svgs/crypto-icons/icons/sync.svg

<?xml version="1.0" encoding="UTF-8" standalone="yes"?>
<svg xmlns="http://www.w3.org/2000/svg" xmlns:xlink="http://www.w3.org/1999/xlink" width="512px" height="512px" viewBox="0 0 384 384" version="1.1">
  <g id="surface1">
    <path style=" stroke:none;fill-rule:nonzero;fill:rgb(0%,0%,0%);fill-opacity:1;" d="M 202.382812 99.941406 C 228.945312 104.324219 238.523438 125.683594 238.523438 125.683594 L 279.875 125.683594 C 279.875 125.683594 267.277344 89.539062 236.882812 73.109375 C 206.488281 56.679688 169.792969 57.226562 135.023438 84.882812 C 100.246094 112.539062 104.628906 171.410156 104.628906 171.410156 L 227.300781 270.398438 C 227.300781 270.398438 216.894531 286.414062 187.867188 283.679688 C 158.84375 280.9375 149.535156 257.117188 149.535156 257.117188 L 107.914062 257.117188 C 107.914062 263.050781 120.785156 293.808594 146.25 307.773438 C 171.714844 321.738281 202.660156 330.773438 245.648438 304.214844 C 288.636719 277.652344 283.160156 212.757812 283.160156 212.757812 L 160.488281 113.085938 C 160.488281 113.085938 175.824219 95.558594 202.382812 99.941406 Z M 245.097656 220.699219 L 245.097656 246.441406 L 142.144531 163.46875 L 142.144531 137.730469 Z M 245.097656 220.699219 "/>
    <path style=" stroke:none;fill-rule:nonzero;fill:rgb(0%,0%,0%);fill-opacity:1;" d="M 191.796875 0 C 85.007812 0 45.207031 97.753906 45.207031 122.671875 L 79.984375 151.148438 C 79.984375 106.058594 112.386719 36.964844 196.359375 36.964844 C 267.917969 36.964844 308.351562 102.039062 308.351562 151.148438 L 245.648438 151.148438 L 345.320312 231.378906 L 345.320312 151.148438 C 345.320312 86.527344 299.863281 0 191.796875 0 Z M 190.671875 346.65625 C 119.109375 346.65625 78.675781 281.578125 78.675781 232.472656 L 141.382812 232.472656 L 41.707031 152.246094 L 41.707031 232.472656 C 41.707031 297.097656 87.164062 383.625 195.230469 383.625 C 302.023438 383.625 341.816406 285.871094 341.816406 260.949219 L 307.039062 232.472656 C 307.042969 277.5625 274.640625 346.65625 190.671875 346.65625 Z M 190.671875 346.65625 "/>
  </g>
</svg>

<svg xmlns="http://www.w3.org/2000/svg" viewBox="0 0 384 384"><path d="M202.383 99.941c26.562 4.383 36.14 25.743 36.14 25.743h41.352s-12.598-36.145-42.992-52.575c-30.395-16.43-67.09-15.882-101.86 11.774-34.777 27.656-30.394 86.527-30.394 86.527L227.3 270.398s-10.406 16.016-39.434 13.282c-29.023-2.743-38.332-26.563-38.332-26.563h-41.62c0 5.934 12.87 36.692 38.335 50.656 25.465 13.965 56.41 23 99.398-3.558 42.989-26.563 37.512-91.457 37.512-91.457l-122.672-99.672s15.336-17.527 41.895-13.145zM245.098 220.7v25.742L142.145 163.47v-25.74zm0 0"/><path d="M191.797 0C85.007 0 45.207 97.754 45.207 122.672l34.777 28.476c0-45.09 32.403-114.183 116.375-114.183 71.559 0 111.993 65.074 111.993 114.183h-62.704l99.672 80.23v-80.23C345.32 86.528 299.863 0 191.797 0zm-1.125 346.656c-71.563 0-111.996-65.078-111.996-114.183h62.707l-99.676-80.227v80.227c0 64.625 45.457 151.152 153.523 151.152 106.793 0 146.586-97.754 146.586-122.676l-34.777-28.476c.004 45.09-32.398 114.183-116.367 114.183zm0 0"/></svg>
